svgs/light/circle-up.svg

<svg xmlns="http://www.w3.org/2000/svg" viewBox="0 0 512 512"><!--! Font Awesome Pro 6.3.0 by @fontawesome - https://fontawesome.com License - https://fontawesome.com/license (Commercial License) Copyright 2023 Fonticons, Inc. --><path d="M284.3 123.7C269.2 108.6 243 108.4 227.5 123.9l-92.5 95.8C123.6 231.2 120.2 248.3 126.3 263.3C132.6 278.3 147.1 288 163.3 288H192v72c0 22.06 17.94 40 40 40h48c22.06 0 40-17.94 40-40V288h28.69c16.25 0 30.75-9.688 36.97-24.69c6.188-14.95 2.812-32-8.562-43.48L284.3 123.7zM348.7 256H288l.0006 104c0 4.406-3.594 8-8.001 8h-48c-4.406 0-7.999-3.594-7.999-8L224 256H163.3C156.9 256 152.1 247.1 157.8 242.1l92.5-95.8c4.162-4.203 9.533-1.797 11.12-.2031l92.69 96C359 246.1 356.1 256 348.7 256zM256 0C114.6 0 0 114.6 0 256s114.6 256 256 256s256-114.6 256-256S397.4 0 256 0zM256 480c-123.5 0-224-100.5-224-224s100.5-224 224-224s224 100.5 224 224S379.5 480 256 480z"/></svg>

<svg xmlns="http://www.w3.org/2000/svg" viewBox="0 0 512 512"><!-- Font Awesome Pro 6.0.0-alpha2 by @fontawesome - https://fontawesome.com License - https://fontawesome.com/license (Commercial License) --><path d="M284.281 123.719C269.156 108.594 243.031 108.391 227.531 123.922L135.031 219.719C123.562 231.203 120.156 248.312 126.344 263.312C132.562 278.312 147.062 288 163.312 288H192V360C192 382.062 209.938 400 232 400H280C302.062 400 320 382.062 320 360V288H348.688C364.938 288 379.438 278.312 385.656 263.312C391.844 248.359 388.469 231.312 377.094 219.828L284.281 123.719ZM348.688 256H288V360C288 364.406 284.406 368 280 368H232C227.594 368 224 364.406 224 360V256H163.312C156.898 256 152.057 247.953 157.844 242.141L250.344 146.344C254.506 142.139 259.877 144.547 261.469 146.141L354.156 242.141L354.344 242.344C359.195 247.195 356.121 256 348.688 256ZM256 16C123.451 16 16 123.451 16 256S123.451 496 256 496S496 388.549 496 256S388.549 16 256 16ZM256 464C141.309 464 48 370.691 48 256S141.309 48 256 48S464 141.309 464 256S370.691 464 256 464Z"/></svg>
